X:1
T:Twenty-Fourth Transcribed from Wyeth's Repository, Part Second , 1813. 
T:A Major              Amzi Chapin, 1812 
T:Isaac Watts, 1709 Hymn 88, Bk. 2                86. 86. (C. M.) 
%%score [ 1 2 3 4 ]
L:1/8
M:4/4
K:A
V:1 treble nm="Tr." snm="Tr."
V:2 treble nm="C." snm="C."
V:3 treble-8 nm="T." snm="T."
V:4 bass nm="B." snm="B."
V:1
"_1. Salvation!  O  the joyful sound!  'Tis pleasure to  our ears;       A sovereign balm for  every  wound,   A cordial for  our  fears.\n" A4 | %1
 c2 e2 e4 | e4 d2 B2 | B8 | A4 d2 e2 | c2 B2 A4- | A4 c4 | de f2 e4 | e4 c2 B2 | B8 | B4 c2 e2 | %11
 A4 e4 | c8 |] %13
V:2
"_2. Buried in  sorrow and  in   sin,   At hell's dark door we  lay;     But  we    a  –  rise   by grace divine     To see a  heavenly day.\n\n" E4 | %1
 E2 E2 E4 | E4 F2 D2 | E8 | E4 A2 E2 | F2 CD E4- | E4 G4 | AG FG A4 | B4 E2 F2 | E8 | E4 A2 E2 | %11
 F4 E4 | E8 |] %13
V:3
"_3. Salvation! let   the  echo     fly    The spacious earth around, While  all   the   ar – mies of the sky  Conspire to raise the sound.\n" E4 | %1
 A2 B2 c4 | B4 A2 F2 | E8 | E4 A2 B2 | c2 d2 e4- | e4 e4 | d2 cB c4 | B4 A2 F2 | E8 | E4 A2 B2 | %11
 c4 B4 | A8 |] %13
V:4
"_______________________________\n_________________________________________________________\nA folk hymn (Jackson 1833, Lowens 1964). It is uncertain to what the title refers.\nCounter\n part from Freeman Lewis, \nThe Beauties of Harmony\n, 1814.\nThis tune is more commonly called \nPrimrose\n, and has been printed many times. \nIt is in \nSouthern Harmony\n, p. 3 in 1835 through 1847, and in \nThe Sacred Harp, \np. 47 from 1844 to the present. \n" A,,4 | %1
 A,,2 E,2 C,4 | E,4 A,,2 B,,2 | E,8 | E,4 A,,2 E,2 | A,2 G,F, E,4- | E,4 E,4 | F,2 F,G, A,4 | %8
 E,4 A,,2 B,,2 | E,8 | E,4 A,,2 [B,,E,]2 | A,4 E,4 | A,,8 |] %13

